!!!OTL: Tuhao lueshen pagongnong
!!!ARE: Asia, China,ÿHunan Chaling
!! I, 526
!!!SCT: C2190
!!!YEM: Copyright 1995, estate of Helmut Schaffrath.
**kern
*ICvox
*Ivox
*M4/4
*k[f#c#]
*D:
{8a
8dd
8b
2a
8b
=1
8a
8b
2.ee
=2
8b
8a
8b
8dd
8ee
8ee
4dd
=3
8a
8dd
4b
2a}
=4
{8a
16b
16dd
8b
2a
8b
=5
16b
16dd
8b
8ee
[8dd
2dd]
=6
8b
8a
16a
16b
4.dd
16b
16dd
8b
=7
1a}
==
!!!AGN: Shange
!!!ONB: ESAC (Essen Associative Code) Database: SENGANSU
!!!AMT: simple quadruple
!!!AIN: vox
!!!EED: Helmut Schaffrath
!!!EEV: 1.0
*-
